X:242
T: HERZ VOLL MUTH BLICK VOLL GLUTH
N: F0419
O: Europa, Mitteleuropa, Deutschland
R: Vaterlands -, Heimat - Lied, nationalistisch
M: 3/4
L: 1/16
K: D
 | D6D2E4 | E6E2F4 |
D3EF2D2G2F2 | E8z4 |
E3EE4F2E2 | D4D3DE2D2 | C8z4 |
A,B,CDE2F2E4 | A,B,CDE2F2E4 |
F3GA8 | F3GA8 |
D2EFG4E4 | D8z4

@@@ Tune index: 5673
